icons/link-16.svg

<svg xmlns="http://www.w3.org/2000/svg" width="16" height="16" viewBox="0 0 16 16"><path d="M7.775 3.275l1.25-1.25a3.5 3.5 0 114.95 4.95l-2.5 2.5a3.5 3.5 0 01-4.95 0 .751.751 0 01.018-1.042.751.751 0 011.042-.018 1.998 1.998 0 002.83 0l2.5-2.5a2.002 2.002 0 00-2.83-2.83l-1.25 1.25a.751.751 0 01-1.042-.018.751.751 0 01-.018-1.042zm-4.69 9.64a1.998 1.998 0 002.83 0l1.25-1.25a.751.751 0 011.042.018.751.751 0 01.018 1.042l-1.25 1.25a3.5 3.5 0 11-4.95-4.95l2.5-2.5a3.5 3.5 0 014.95 0 .751.751 0 01-.018 1.042.751.751 0 01-1.042.018 1.998 1.998 0 00-2.83 0l-2.5 2.5a1.998 1.998 0 000 2.83z"/></svg>

<svg xmlns="http://www.w3.org/2000/svg" width="16" height="16" viewBox="0 0 16 16">
  <defs/>
  <path d="M7.775,3.275 L9.025,2.025 C10.392,0.658 12.608,0.658 13.975,2.025 C15.342,3.392 15.342,5.608 13.975,6.975 L11.475,9.475 C10.108,10.842 7.892,10.842 6.525,9.475 C6.25,9.179 6.258,8.719 6.543,8.433 C6.829,8.148 7.289,8.14 7.585,8.415 C7.96,8.791 8.469,9.002 9,9.002 C9.531,9.002 10.04,8.791 10.415,8.415 L12.915,5.915 C13.696,5.134 13.696,3.866 12.915,3.085 C12.134,2.304 10.866,2.304 10.085,3.085 L8.835,4.335 C8.539,4.61 8.079,4.602 7.793,4.317 C7.508,4.031 7.5,3.571 7.775,3.275 Z M3.085,12.915 C3.46,13.291 3.969,13.502 4.5,13.502 C5.031,13.502 5.54,13.291 5.915,12.915 L7.165,11.665 C7.461,11.39 7.921,11.398 8.207,11.683 C8.492,11.969 8.5,12.429 8.225,12.725 L6.975,13.975 C5.608,15.342 3.392,15.342 2.025,13.975 C0.658,12.608 0.658,10.392 2.025,9.025 L4.525,6.525 C5.892,5.158 8.108,5.158 9.475,6.525 C9.75,6.821 9.742,7.281 9.457,7.567 C9.171,7.852 8.711,7.86 8.415,7.585 C8.04,7.209 7.531,6.998 7,6.998 C6.469,6.998 5.96,7.209 5.585,7.585 L3.085,10.085 C2.709,10.46 2.498,10.969 2.498,11.5 C2.498,12.031 2.709,12.54 3.085,12.915 Z"/>
</svg>
